X:1
T:              GUNS : E T U D E S for a single hand some for the right hand some for left hand 
T:john martin Nov.23-Dec.17 2014 
%%score { ( 1 4 ) | ( 2 3 5 ) }
L:1/8
Q:1/4=144
M:6/8
K:A
V:1 treble nm="Piano" snm="Pno."
V:4 treble 
V:2 bass 
V:3 bass 
V:5 bass 
V:1
!mf!"^Vivo""^= 144 bpm" F,/C/G/A/e/b/ e/A/G/C/F,/C/ | F,/C/G/A/e/b/ e/A/G/C/F,/C/ | %2
 F,/C/G/A/e/b/ e/A/G/C/F,/C/ | F,/C/G/A/e/=c'/ e/A/G/C/F,/C/ | %4
 z/!<(! C/G/A/e/c'/!ff!"^1\n2   3\n     5" !>![^d^d']/[Ac]/!mf!G/C/=F,/C/!<)! | %5
 (C,/=F,/)G,/B,/=C/=F/ G/B/=c/=f/e/g/ | %6
!mf! (b/c'/)[=c'^d']/=g/"^1"e/=c/ =G/E/ z/"^2    3  5" =G,/E,/B,,/ | %7
 F,/C/G/(A/e/)b/ e/A/G/C/F,/C/ |!f! (F,/C/)G/A/e/b/ e/A/G/C/F,/C/ | E,/B,/F/G/d/b/ e/A/G/B,/E,/C/ | %10
 C/G/^d/=f/b/=f'/ b/f/d/G/C/^A/ | ^D/^A/=f/^f/c'/g'/ c'/f/=f/A/D/=A/ | %12
 ^A,/=F/A/d/^a/d'/ a/d/A/F/A,/C/ | G,/^D/=G/"^5    2"=c/g/=c'/ g/c/G/D/(3G,/=C/B,/ | %14
 z/"^5" (D/F/)B/=g/b/ g/B/"^1"F/D/=G,/B,/ | D,/A,/C/F/d/f/ d/F/C/A,/D,/E,/ | %16
[K:bass] D,,/A,,/C,/F,/D/F/ D/F,/C,/A,,/D,,/E,,/ |!mf! _B,,/=F,/A,/D/_B/d/ B/D/A,/F,/B,,/D,/ | %18
!f! _B,,/=F,/A,/D/_B/d/ B/D/A,/F,/B,,/D,/ |!f! _B,,/=F,/A,/D/_B/d/ B/D/A,/F,/B,,/D,/ | %20
!f! _B,,/=F,/A,/D/_B/d/ B/D/A,/F,/B,,/D,/ | %21
 z/!f! E,/"^4    1      5\n              2"G,/=C/[^CA]/c/ ^A/"^1\n4"[D=A]/[CG]/E,/A,,/^D,/ | %22
 z/ ^D,/=G,/B,/[=CG]/=c/ A/[^CG]/[=C=G]/D,/G,,/=D,/ |[K:treble] F,/C/G/A/e/b/ e/A/G/C/F,/C/ | %24
 F,/C/G/A/e/b/ e/A/G/C/F,/C/ | F,/C/G/A/e/b/ e/A/G/C/F,/C/ | F,/C/G/A/e/b/ e/A/G/C/F,/C/ | %27
[K:bass] F,,/C,/G,/A,/E/B/ E/A,/G,/C,/F,,/C,/ | F,,/C,/G,/A,/E/B/ E/A,/G,/C,/F,,/C,/ | %29
 F,,/C,/G,/"^5"A,/E/B/ E/A,/"^1"G,/C,/F,,/C,/ | %30
 z/"^2  5  5 2" [F,,C,]/G,/A,/[^DE]/B/!f! [=DE]/[G,A,]/F,/C,/F,,/E,/ | %31
[M:13/16][K:treble]"^pedale different harmonies together here" F,/!<(!C/G/A/e/b/e/A/G/C/F,/C/^D/!<)! | %32
 z/ C/G/A/e/b/^d'/b/g/e/[Gc]/[CB]/^D/ | %33
[M:15/16] ^D6 z/ z"_2  1   2\n        3  5   1     2\n                         1" | %34
[M:13/16]"^1   2" (D/C/)"^1"=C/B,/"^3"G,/"^5  2"=G,/ z/ z z2 |[M:9/8] z9 | %36
 !arpeggio![^ABg]3 z2 z FE^D | C z2 z2 z [cf]2 z |[M:13/16] (D/C/)=C/B,/G,/=G,/ z/ z z2 | %39
[M:3/8]!mp! ^D2 =D |[M:6/8] =F =G2 G3 |!p! G3 ^A3 |[M:9/8] !fermata!B4 A,4 G, | %43
[M:5/4]"^Andante"[Q:1/4=80] z _e [d_e']8 | z _e [d_e']8 | z2 _e'8 | z _e [d_e']8 | %47
[M:5/4] z _e [d_e']8 | z _e [d_e']8 | z _e [d_e']8 |[M:9/8] =C2 [=d^d']4- [dd']3 | %51
 =C2 [=d-^d']4 [d^e']3 | =C2 [=d^d']4- [dd']3 | =C2 [=d^d']4- [dd']3 | =C2 [=d^d']4- [dd']3 | %55
[M:5/4] z/ ^B,/-B,- B,4 ^d'4 |[M:9/8] z/ =C/-C [=d^d']4- [dd']3 | %57
"^the c\n has to come \nas soon as possible" =C2 [=d^d']4- [dd']3 | =C2 [=d^d']4- [dd']3 | %59
 =C2 [=d^d']4- [dd']3 | =C2 [=d^d']4- [dd']3 | =C2 [=d^d']4- [dd']3 | =C2 [=d^d']4- [dd']3 | %63
 =C2 [=d^d']4- [dd']3 | =C2 [=d^d']4- [dd']3 | =C2 [=d^d']4- [dd']3 | =C2 [=d^d']4- [dd']3 | %67
 =C2 [=d^d']4- [dd']3 | =C2 [=d^d']4- [dd']3 | [c'c'']2 ^d' [=fe']3 [^f=f']/[fe']/[F=g][A^g] | %70
 z/ !>![Ag]/- [Ag]2 !>![B=ca]/a/a/a/- !>![GBca]4 |!f! z9[K:bass] | %72
[K:treble] [cg]4 [=ca]2 d2- d/e/- |[M:11/8] e-e<f [Gcg]2 [G^da]2 !arpeggio![G,A,_B,A]4 | %74
[M:9/8] E4 [FAe]4- [FAe]- | [FAe]4 z4 z | z9 | z9 | z9 | %79
[M:6/8][Q:1/4=144]"^Vivo""^144bpm" F,/C/G/A/e/b/ e/A/G/C/F,/C/ | F,/C/G/A/e/b/ e/A/G/C/F,/C/ | %81
 F,/C/A/B/f/c'/ e/A/G/C/F,/C/ | z/ C/B/c/e/b/ e/a/g/c/F/c/ | z6 | %84
 z/ d/^d/f/a/g/ e'/^d'/c'/b/f'/f/ | g/^d/e/F/G/c/ B/E/F/G/A/a/ | a3 g F2 | D2 C c'3 | %88
 b'/a'/g'/f'/e'/f'/ ^d'/e''/^d''/c''/b'/a'/ |!ff! g'/f'/e'/^d'/c'/b/ a/g/f/e/^d/c/ | %90
 B/A/G/F/E/^D/ C/B,/A,/G,/F,/E,/ | z/ D/A/_B/=f/=c'/ f/B/A/D/=G,/D/ | %92
 z/ D/A/_B/=f/=c'/ f/B/A/D/=G,/D/ | z/ D/A/_B/=f/d'/ f/B/A/D/F/D/ | %94
 z/ D/A/d/A/D/ z/ ^D/^A/^d/A/D/ | z/ D/A/d/A/D/ z/ ^D/^A/^d/A/D/ | %96
 z/ =C/=G/=c/G/C/ z/ _D/_A/_d/A/D/ | z/ =C/=G/=c/G/C/ z/ _D/_A/_d/A/D/ | %98
 z/ B,/_G/B/G/B,/ z/ =C/=G/=c/G/C/ | z/ _B,/=F/_B/F/B,/ z/ =B,/^F/=B/_G/B,/ | %100
 z/ A,/E/A/E/A,/ z/ ^A,/=F/^A/F/A,/ | z/ =G,/D/=G/D/G,/ z/ ^G,/^D/^G/D/G,/ | %102
 z/ =G,/D/=G/D/G,/ z/ ^G,/^D/^G/D/G,/ | z/ =G,/D/=G/D/G,/ z/ ^G,/^D/^G/D/G,/ | %104
 z/ =G,/D/=G/D/G,/ z/ ^G,/^D/^G/D/G,/ | z6 | z6 | F,/C/G/A/e/b/ e/A/G/C/F,/C/ | %108
 F,/C/G/A/e/b/ e/A/G/C/F,/C/ | F,/C/G/A/e/b/ e/A/G/C/F,/C/ | F,/C/G/^A/=f/c'/ f/A/G/C/F,/C/ | %111
 z/ C/G/B/f/!courtesy!^c'/ !>![^d^d']/[Ac]/G/C/=F,/C/ | C,/G,/^D/E/B/f/ B/E/D/G,/C,/G,/ | %113
 C,/G,/^D/E/B/f/ B/E/D/G,/C,/G,/ | C,/G,/^D/E/B/f/ B/E/D/G,/C,/G,/ | %115
 (C,/=F,/)G,/B,/=C/=F/ G/B/=c/=f/e/g/ | (b/c'/)=c'/=g/e/=c/ =G/E/ z/ =G,/E,/B,,/ | %117
[M:9/8] F,/C/G/A/e/=c'/ e/A/G/C/F,/C/ z/ C/G/A/e/^c'/ | %118
 !>![^d^d']/[Ac]/G/C/=F,/C/ (C,/F,/)G,/B,/=C/=F/ G/B/=c/=f/e/^c/ | %119
[M:9/8] (b/c'/)=c'/=g/e/=c/ =G/E/ z/ G,/^D,/C,/ =C,/B,,/=D,/^D,/E, | %120
[M:6/8] E,/B,/_G/=G/d/a/ d/G/_G/B,/E,/B,/ | d/=G/_G/B,/E,/B,/ (E,/B,/)G/=G/d/a/ | %122
 (E,/B,/)_G/=G/d/_b/ d/G/_G/B,/E,/B,/ | !>![_d_d']/[=GB]/_G/B,/_E,/B,/ (B,,/E,/)_G,/A,/_B,/_E/ | %124
 a/b/_b/=f/d/_B/ =F/D/ z/ z/ z | z6 | F,/C/G/A/e/b/ e/A/G/C/F,/C/ | F,/C/G/A/e/b/ e/A/G/C/F,/C/ | %128
 F,/C/G/A/e/b/ e/A/G/C/F,/C/ | F,/C/G/A/e/=c'/ e/A/G/C/F,/C/ | %130
 z/ C/G/A/e/c'/ !>![^d^d']/[Ac]/G/C/=F,/C/ | (=C,/E,/)=G,/^A,/B,/E/ =G/^A/B/e/^d/=g/ | %132
 (b/c'/)=c'/=g/e/=c/ =G/E/ z/ _G,/=F,/B,,/ | =C,/^C,/ z z4 | !arpeggio![Dfg]6 | %135
 z2 z!ff!!ff! !>![CGc]3 | z !>![GAc^d] !>![GAcd-]4 | [GAcd]3 e =c2 |[M:7/8] =G,6 z |[M:3/4] z6 | %140
 z6 |[M:5/4] z4 (6:4:6z/!mf! C,/=C/B/!f!^A/=g'/!fff! !>![fg'] z z ^A,/^C/ | %142
[M:3/4] z4 (6:4:6z/ z/ =C/B/^A/=g'/ | !>![f=g'] z z4 | z6 | z6 | z6 |] %147
[M:4/4] z2 z2[Q:1/4=48]"^Andante con dolce \nespressivo e tenero" F4 | %148
"^48  bpm"!<(! eAD[G,A] ebf'[g'b']!<)! | g'd'c'[E-g] [E-e][EA]D[G,A]- | [G,A]3 z z4 | %151
[M:5/4]"^3rd  E T U D E  for  RIGHT  HAND\n only sketch unfinished.\nMarch24,2015" z10[Q:1/4=72]"^Adagio  ISTESSO TEMPI DE UNA ESTUDI" | %152
[M:4/4] z/ A,3/2 ^A,2 [=A,B,F]2 [F_e]2 |!f! !arpeggio![d'_e'']4 [=C_EB]4 | %154
 !arpeggio![d'_e'']4 [=C_EB]4 | [=C_EB]4 !arpeggio![=A,D_A_B]4 | [=C_EB]4 [CEB]4 | %157
 z/ _e'3/2- e'2 z/ =c'3/2- c'2 | (b4 _b4) | !arpeggio![d'_e'']4 [=C_EB]4 | %160
[M:5/4]!f! !arpeggio![d'_e'']4!p! [=C_EB]4 _d'2 | %161
[M:4/4] z3/2 [ed']/- [ed'_e'']2!mf! !tenuto![_EF=Gd]4 | %162
 !tenuto![=C_EB]4 !arpeggio!!tenuto![=A,D_A_B]4 | =G4 F4 | [=F=g]4 D4 | =F4 D4 | D4 B,4 | D4 B,4 | %168
 ^A,4 z z z2 |[M:5/4] z10 | z10 | z10 |[M:4/4] z/ _e'3/2- e'2 z/ =c'3/2- c'2 | z4 F4 | %174
 !>!F4 !>![E,F]4 | z [E,-G,-B,] [E,G,B,^A]6 ||"^4th   E T U D E\n   for  a   SINGLE HAND" z8 | %177
 z/ d'/d' d'd' d'd'd'!arpeggio![=cec'd'] | z/ d'/d' d'd' d'd'd'!arpeggio![=cec'd'] | %179
 z !tenuto!F2 !tenuto![G=f]2 b !>!g'2 | g''4[Q:1/4=184]"^Presto" a''/_b'/=b'/=c'/ a''/_b'/=g'/_a/ | %181
 a''/_b'/a'/g/ (5:4:5G/C/A,/C/G/ (5:4:5=f/c'/e'/c'/f/ (5:4:5G/C/A,/C/G/ | %182
 (5:4:5G/C/A,/C/G/ (5:4:5=f/c'/e'/c'/f/ (5:4:5G/C/A,/C/G/ (5:4:5f/c'/e'/c'/f/ | %183
 (5:4:5G/C/A,/C/G/ (5:4:5=f/c'/e'/c'/f/ (5:4:5G/C/A,/C/G/ (5:4:5f/c'/e'/c'/f/ | %184
 (5:4:5_B/D/G,/D/B/ (5:4:5_e/b/d'/b/e/ (5:4:5B/D/G,/D/B/ (5:4:5e/b/d'/b/e/ | %185
 (5:4:5G/C/A,/C/A/ (5:4:5=f/c'/e'/c'/f/ (5:4:5G/C/A,/C/A/ (5:4:5f/c'/e'/c'/f/ | %186
 (5:4:5_B/D/G,/D/=B/ (5:4:5_e/b/d'/b/e/ (5:4:5_B/D/G,/D/=B/ (5:4:5e/b/d'/b/e/ | %187
 (5:4:5G/C/A,/C/=G/ (5:4:5=f/c'/e'/c'/^f/ (5:4:5^G/C/A,/C/=G/ (5:4:5=f/c'/e'/c'/^f/ | %188
 (5:4:5_B/D/G,/D/B/ (5:4:5_e/b/d'/b/e/ (5:4:5B/D/G,/D/B/ (5:4:5e/b/d'/b/d/ | %189
 (5:4:5G,/C/A,/C/G/ (5:4:5=f/c'/e'/c'/e/ (5:4:5G,/C/A,/C/G/ (5:4:5f/c'/e'/c'/e/ | %190
 (5:4:5G,/C/A,/C/G/ (5:4:5=f/c'/e'/c'/e/ (5:4:5G,/C/A,/C/G/ (5:4:5f/c'/e'/c'/e/ | %191
 (5:4:5=G,/C/A,/C/G/ (5:4:5e/c'/e'/c'/^d/ (5:4:5G,/C/A,/C/G/ (5:4:5e/c'/e'/c'/d/ | %192
 (5:4:5=G,/C/A,/C/=F/ (5:4:5=f/c'/e'/c'/e/ (5:4:5G,/C/A,/C/F/ (5:4:5f/c'/e'/c'/e/ | %193
 (5:4:5_B/D/G,/D/A/ (5:4:5_e/=b/d'/b/d/ (5:4:5B/D/G,/D/A/ (5:4:5e/=b/d'/b/d/ | %194
 (5:4:5G/C/A,/C/G/ (5:4:5=f/c'/e'/c'/f/ (5:4:5G/C/A,/C/G/ (5:4:5f/c'/e'/c'/f/ | %195
 (5:4:5_B/D/G,/D/B/ (5:4:5_e/b/d'/b/e/ (5:4:5B/D/G,/D/B/ (5:4:5e/b/d'/b/e/ | %196
 (5:4:5G/C/A,/C/F/ (5:4:5G/C/A,/C/F/ (5:4:5G/C/[F,A,]/C/F/ (5:4:5G/C/[F,A,]/C/F/ | %197
 (5:4:5g/c'/=f'/a/=g'/ (5:4:5g/c'/f'/a/g'/ (5:4:5g/c'/f'/a/g'/ (5:4:5g/c'/f'/a/g'/ | %198
 (5:4:5g/c'/=f'/a/=g'/ (5:4:5g/c'/f'/a/g'/ (5:4:5g/c'/f'/a/g'/ (5:4:5g/c'/f'/a/g'/ | %199
!ff!!ff! !>!_B,8 | z2 g/b/=g'/_b'/ g/b/g'/b'/ g/b/g'/b'/ |!sfz!!sfz! !>!_B,8 | %202
 z2 g/b/=g'/_b'/ g/b/g'/b'/ g/b/g'/b'/ | z2 a/=c'/g'/b'/ ^a/^c'/a'/=c''/ a/c'/a'/c''/ | %204
 z2 ^a/c'/a'/=c''/ b/d'/^a'/^c''/ b/d'/a'/c''/ | z2 b/d'/^a'/c''/ =c'/^d'/b'/d''/ c'/d'/b'/d''/ | %206
 z2 b/d'/^a'/c''/ =c'/^d'/b'/d''/ =c''/^d''/b'/=d'/ | b/g/=g/e/ d/B/^A/F/ E/C/D/B,/ E,/C,/D,/B,,/ | %208
 z8 | z8 | z8 | %211
[M:6/4]!ff!!ff! !>![=c''_d'']4!sfz!!sfz![Q:1/4=66]"^Adagio""^circa66 bpm"{/!fermata!f'} !>!!fermata![c''d'']4 !arpeggio!!>![=F,_B,=GABf]4 | %212
[M:4/4] d''/c''/[^bc'd']- [bc'd'][bc'd'] z4 | z8 | %214
 =c/d/=f/=g/ (g<=c')"^SLOWER here!r" !>!c'2 !>!c'2 | %215
[Q:1/4=105]"^Andante" !>!=c'2 !>![c'b']2 !>![c'b']2 [c'^a'b']2 | %216
 [=c'^a'b']2"^maddening and more inconsistent in tempo" (6:4:6_B/_A/D/=A/c/=f/ (6:4:6B/_A/D/=A/c/f/ (6:4:6B/_A/D/=A/c/f/ | %217
 (6:4:6_B/_A/D/=A/c/=f/ (6:4:6B/_A/D/=A/c/g/ (6:4:6B/_A/D/=A/c/g/ (6:4:6B/_A/D/=A/c/g/ | %218
 (6:4:6_B/_A/D/=A/c/g/ (6:4:7B/_A/=C/B,/F/^d/4g/4 (6:4:7B/A/C/B,/F/d/4g/4 (6:4:7B/A/C/B,/F/d/4g/4 | %219
 (6:4:7_B/_A/=C/B,/F/^d/4g/4 (6:4:6=g/e/F/D/F/e/ (6:4:6g/e/F/D/F/e/ (6:4:6g/e/F/D/F/e/ | %220
 (6:4:6=g/e/F/D/F/e/ (6:4:6g/e/F/D/=F/_d/ (6:4:6g/e/^F/D/=F/d/ (6:4:6g/e/^F/D/=F/d/ | %221
 (6:4:6=g/e/F/D/=F/_d/ (6:4:6g/e/^F/D/G/e/ (6:4:6g/e/F/D/G/e/ (6:4:6g/e/F/D/G/e/ | %222
 (6:4:6=g/e/F/D/G/e/ a/_b/=b/c/ a/_b/=b/=c/ a/_b/=b/c/ | %223
 a/_b/=b/=c/ a/_b/=b/c/ a/_b/=b/c/ a/_b/=b/c/ | a/_b/=b/=c/ a/_b/=b/G/ a/_b/=b/f/ a/_b/=b/G/ | %225
 a/_b/=b/G/ a/_b/=b/F/ a/_b/=b/=f/ a/_b/=b/F/ | a/_b/=b/=F/ a/_b/=b/G/ a/_b/=b/f/ a/_b/=b/G/ | %227
 a/_b/=b/G/ a/_b/=b/F/ a/_b/=b/=f/ a/_b/=b/F/ | a/_b/=b/=F/ a/_b/=b/F/ a/_b/=b/f/ a/_b/=b/F/ | %229
 a/_b/=b/=F/ a/_b/=b/F/ a/_b/=b/f/ a/_b/=b/F/ | a/_b/=b/=F/ E2 _E4- | E2 [=F=Gg]6- | %232
 [FGg]2- [FGg]6- | [FGg]2 z6 | z8 |] %235
[M:15/16]"^E  t  u  d  e\n  #5" z2 z !>![E=F^dd']/!>![EFdd']/- [EFdd']2 !>!=G!>![EG]/ | %236
 z2 G/GEE [^D=d]2 | [^Dd]4 z z/ z3/2 [Dd=f]/ |[M:4/4] [^Dd=g]3 z4 z | z4 z2 z [^Dd] | %240
 z4 z2 z3/2 [^Dd]/ | z2 z2 z2 z3/2 [^Dd]/ | [^Dd]4 z4 | %243
[M:6/8]"^unfinished March24.2015" z!f! [cb]/[d=g]/[^d^g]/[=d_ea]/ z z!mp!!>(! [cb]/[d=g]/!>)! | %244
!p! [^dg]/[=d_ea]/ z z4 |[M:7/8]"^E T U D E    NO. 6" d/C/=c'/g/=g d/C/c'/^g/ =g z | %246
 z B/_B,/=c/=G/ ^G/A,/ z z2 | z B/_B,/=c/=G/ ^G/A,/ z2 z |[M:3/4] z6 | %249
 z2 [a_b]/ z/[K:bass] z B,,/B,,,/=C/B/ |[K:treble] =G^G =GG GG | =GG GF z2 | F6 | z6 | %254
 z/ =c3/2 z2 z/ c3/2 | z6 | z6 | d/C/^d'/e/ =f/F/ z z/ F/ z | F,/=G,/ z G,/ z/ z z2 | z6 | z6 | %261
 a6 | !>![=A^a]/ z/ z z4 | e/^D/ z z4 | e/^D/ z z2 e/D/ z | =f/E/ z z2 z z/ e/ | %266
 ^D/ z z2 e/ D/ z =f/ | E/ z z/ !>![=Gg]4 | %268
[Q:1/4=134]"^Allegro""^134 BPM" f/=F/ z z3/2 =f/ e/^d'/d''/ z/ | =c''/^c''/=c''/ z/ z4 | %270
 f/=F/ z z3/2 =f/ e/^d'/d''/ z/ | =c''/^c''/=c''/=c/ B/^c/=c/ z/ B,>^a | ^a4 z2 | %273
 z3/2 b/ B,/ z/ z z2 | z/ =c/[c'd']/^D/ z2 z E, | f/=F/ z z4 | z6 | z6 | z6 | B z z2 z [^ab] | %280
 !>![=G^g] z z!fff!!fff! [^a'b'] !>![=gg'] z | z z [^ab]!>![=G^g] z2 | z z z4 | z6 | z6 | %285
 z/!ff! f/=g'/^g'/ a/^A/B,/C/"^c  b" =C,/B,,/ z | [A,_B,G]2 [A,B,G]4 | [A,_B,G] z z2 z2 | %288
 [A,^A,G]2 z2 z2 | z/ =G/F/=f/ e/^d/D [CD]/[CD]/.[=C_D] | =G,6 | %291
 z/ =G/F/=f/ e/^d/D [CD]/[CD]/.[=C_D] | =G,6- | G,2 z4 | !>![A,_B,G] z z2 z2 | [A,_B,G] z z4 | %296
 z/ f/=g'/^g'/ a/^A/B,/C/ =C,/B,,/ z | [A,^A,G]2 z4 | [_A,=A,=G]4 [^DE]2 | z6 | %300
 z2 z3/2 A/ g/=G/f'/=F/ | E,/^D/=D/c/ =c'/b'/^A/ z/ !tenuto!=A2 | z4 !tenuto![GA]2 | %303
!ff! !>!A2 !>!A2 !>![GA]2 |[M:4/4] !>![=GA]2!fff! !>![FGA]2 [^EFGA]4 | %305
[M:3/4]!fff! z/ [aa']3/2 z/ !>![aa'] z/ z/ [aa']/[_ba'] | z2 z3/2 A,/ A/a/!>!A,/!>!A,/ | %307
[M:5/4] !>!A,/ z/ z z2 A,/ z/ z/ [G,A,]/ z3/2!ff! A,/ A/^a/!>!A,/!>![G,A,]/ | %308
[M:3/4]!f!!ff! !>![G,A,]/[GA]/[=GA] [GA]2 [FGA]2 |!ff! A>A A/ z/ A!f!!fff! AA | %310
 A>A A/A/A/A/ [A_B]/[AB]/[Ac]/[A=c]/ |!ff! _B/[A,A] z [G,A,A]/!fff! !>![^EF=GA]3- | [EFGA]6 | z6 | %314
 z6 | z6 | z6 |][K:C#][M:2/4] (6:4:6z/ A/a/G/=A,/=C/ (6:4:4=B,/ z/ z/ z3/2 | %318
 (6:4:6z/ A/a/G/=A,/=C/ (6:4:6=B/ z/ z/ z/ z/!mp! b/ | %319
 (6:4:6=B/ z/ z/ z/ z/!p! b/ (6:4:6B/ z/ z/ z/ z/ z/ | %320
 (6:4:6z/ z/ A/a/=a'/ z/ (6:4:6z/ z/ z/ z/ z/ z/ | (6:4:6z/ z/ z/ z/ z/ A/ (6:4:6z/ A/G/=A/ z/ z/ | %322
 (6:4:5[d=e]=f/f/f/f/- (6:4:6f/ z/ z/ z/ z/ z/ | (6:4:6z/ z/ z/ z/ z/ z/ (6:4:6z/ z/ z/ z/ z/ z/ | %324
 (6:4:6z/ z/ z/ z/ z/ z/ (6:4:6z/ z/ z/ z/ z/ z/ | %325
 (6:4:6z/ z/ z/ z/ z/ z/ (6:4:6z/ z/ z/ z/ z/ z/ | %326
[Q:1/4=100] (6:4:6z/ z/ z/ z/ z/ z/ (6:4:6z/ z/ z/ z/ z/ z/ | %327
!ff! (6:4:6=d'/^d'/c'/=c'/^c'/=c'/ (6:4:6A/=b/b/^c'/=c'/c/ | %328
 (6:4:6=C/d/=d'/^d'/c'/=c'/ (6:4:6^c'/=c'/A/b/=b/=d'/ | %329
 (6:4:6z/ d'/=d'/ z/ z/ ^d'/ (6:4:6=d'/d/D/ z/ z/ z/ | %330
 (6:4:6e''/d'/=d'/ z/ z/ ^d'/ (6:4:6=d'/d/D/ z/ z/ z/ | %331
!fff! (6:4:6!>![FGf=g]/d'/=d'/ z/ z/!ff! ^d'/ (6:4:6=d'/d/D/ z/ z/ z/ | %332
!fff! (6:4:6[F=e=f=g]/[^fd']/[^g=d']/a/[g=a]/^d'/ (6:4:6=d'/d/D/ z/ z/ z/ | z4 | %334
!fff! (6:4:6[F=e=f=g]/[^fd']/[^g=d']/a/[g=a]/^d'/ (6:4:6=d'/d/D/ z/ z/ z/ | z4 | z4 | z/ B/=B ^B2 | %338
 z4 |[M:3/4] [DE]2 z2 z2 |[M:2/4] z4 |[M:4/4]"^f  i  n  i" z8 | z8 |] %343
[M:15/16][Q:1/4=120]"^Allegretto" z [dad']2 [dad']2 [dad']2 [=D=E]/ x5/2 | %344
 z [dad']2 [dad']2 [dad']2 [=D=E]/ x5/2 | z [cfgc']2 [cfgc']2 [cfgc']2 [cf]/ | %346
[M:4/4][Q:1/4=72]"^Maestoso" z/ [=c=f]/[^f=c']/[=e=a]/ [_b=e']/[f^c']/[=f=c']/[^c'g']/ [_e'_b']/[a=d']/[=g_ac']/[f=e']/ [_d=c']/[=A^g]/[dc']/[Ag]/ | %347
 z/ [c=d']/-[cd']- [cd']2 z/ [cd']/-[cd']- [cd']2 | %348
 z/ [c=d']/-[cd']- [cd']2 z/ [cd']/-[cd']- [cd']2 | z/ [=F,=E]3/2- [F,E]2 z/ [F,E]3/2- [F,E]2 x4 | %350
 z2 z3/2 [cc']/ [cc']4 x4 |!f! (!>![=D_Ec=e]2 [^D=d]2)!mf! [C=c]2 [D=B]2 | %352
 z [=A,=E=A]- [A,EA]6 x4 |!ff! z [=A,=E=A]- [A,EA]6 x4 | z [dad']2 [dad']2 [dad']2 [=D=E]/ z/ x4 | %355
 z/ [dad']2 [dad']2 [dad']2 [=D=E]/ z x4 | z [dad']2 [dad']2 [dad']2 [=D=E]/ z/ x4 | %357
 z/ [dad']2 [dad']2 [dad']2 [=D=E]/ z x4 | z8 |] %359
[K:C][Q:1/4=96]"^Andante""^ETUDE  NO . 9" z (D^G^c ^fcGD) | z (D^G^c ^fcGD) | z (E^G^d ^fa b2) | %362
!mf!{/^d} (d4 d4) x4 |!mf!{/^d} (d4 d4) x4 | z (D^G^c ^fcGD) | z (D^G)^c ^f[ca][Gb][D^c'-] | %366
 [^Cc']B,A,B, ^G,^F,E,F, | D,>^C, D,>C, D,>C, D,>C, | B,,>^C, B,,>C, B,,>C, B,,>C, | ^F,, z z2 z4 | %370
 z8 | z8 | z8 | z8 | z8 | z8 | z8 |] z8 | ([A,C]^G)[A,C]G ([A,C]^F)[A,C]F | %379
 [A,C]^G[A,C]G [A,C]^F[A,C]F | [A,C]^G[A,C]G [A,C]^F[A,C]F | g8 x4 | [B^g]8 x4 | %383
 B,2 A,2 ^G,2 A,2 x4 | B2 A2 ^G2 A2 | (^c4 ^A4) | !arpeggio![^A^fb]4 z4 | z [^A^fb]6 z | %388
 z !arpeggio![^A^fb]3!ff! !arpeggio![B^g^c'^d']4- | [Bgc'd']4 !arpeggio![_E_d=d^ff']4 || %390
[K:G] z2 z3/2!ff! !>![ee']/ !>![ee']4 |{/[F,F]} !>![F,F]8- x4 | [F,F]8 x4 | z8 |] %394
V:2
!mf!!ped! !>!F,/ z/ z z4!ped-up! |!ped! !>!F,6 |!ped! !>!F,6!ped-up! |!ped! !>!F,6!ped-up! | %4
!f!!ped! !>!F,6!ped-up! |!ped! !>![=C,,=C,]6!ped-up! | %6
 z2"^5""^4"!ped! E2!>(!!ped! !>![=C,,=C,]2!ped-up!!>)! |!f!!ped! !>![F,,F,]6!ped-up! | %8
!ped! !>![F,,F,]6!ped-up! |!ped! !>![E,,E,]6!ped-up! |!f!!ped! [C,C]6!ped-up! | %11
!ff!!ped! [B,,=G,B,]6!ped-up! |!ped! [^A,,G,^A,]6!ped-up! |!f!!ped! [G,,G,]6!ped-up! | %14
!ped! [=G,,=G,]6!ped-up! |"^1"!ped! [=C,,=C,]6!ped-up! |!ff!!ped! [=C,,,=C,,]6!ped-up! | %17
!f!!ped! [_B,,,_B,,]6!ped-up! |!ped! [_B,,,_B,,]6!ped-up! |!ped! [_B,,,_B,,]6!ped-up! | %20
 [_B,,,_B,,]6 |!f!!ped! A,,6!ped-up! |!f! [G,,,G,,]6 |!ff!!ped! !arpeggio!!>![G,,F,B,]6!ped-up! | %24
!ped! !arpeggio!!>![^E,,F,^A,]6!ped-up! |!ped! !>![F,,F,]6!ped-up! |!ped! !>![G,,F,]6!ped-up! | %27
!ped! !>![F,,F,G,]6!ped-up! |!ped! !>![F,,F,G,]6!ped-up! |!ped! !>![^D,,^D,]6!ped-up! | %30
!ff!"^very awkward I  know !"!ped! !>![B,,,F,,B,,]6!ped-up! |[M:13/16]!f!{/D,,-} !>![D,,D,F,]6 z/ | %32
!ff! !>![B,,,B,,]6 z/ |[M:15/16] z A,,/"^5           5"C,/4G,/B,/C/E/G/B/e/c/G/E/F3/4 | %34
[M:13/16] z3"^2" =F,/E,/"^1""^5"C,/=C,/D,,/(3B,,/G,/=C/ | %35
[M:9/8] D/C/F/G/E/^D/ C/G/A/G/F/G/ E/F/D/E/=D | DD,C,, C,,G,,C, ^D,E,A, | G,DC FEA [^DG]3 | %38
[M:13/16] z3 =F,/E,/C,/=C,/D,,/(3B,,/G,/=C/ |[M:3/8] z3 |[M:6/8] z6 | z6 |[M:9/8] z9 | %43
[M:5/4] =C6- C4 | =C6- C4 | D6 D4 | =C6- C4 |[M:5/4] =C6- C4 |!ped! =C6-!ped-up! C4 | =C6- C4 | %50
[M:9/8]!ped! !tenuto!=C8!ped-up! =G, |!ped! =G,2 z z2 z4!ped-up! | %52
!ped! =G,2 z2 z G,- [A,,G,]3!ped-up! |!ped! A,,3 ^A,, =G,4- G,!ped-up! |!ped! z4 =G,4- G,!ped-up! | %55
[M:5/4] =F,,4- F,,=G,- G,4 |[M:9/8]!ped! =F,,4 G,4- G,!ped-up! | %57
!ped! [E,,=F,]4 [E,,F,-]4 F,!ped-up! |!ped! [^D,,=D,]4 [E,,F,-]4 [D,,F,]!ped-up! | %59
!ped! !tenuto!=C8 z!ped-up! |!ped! !tenuto!=C8 z!ped-up! |!ped! !tenuto!=C8 z!ped-up! | %62
!ped! !tenuto!=C8 z!ped-up! |!ped! !tenuto!^A,8 z!ped-up! |!ped! =G,8 z!ped-up! | %65
!ped! =F,8 z!ped-up! |!ped! G,8 z!ped-up! |!ped! ^A,8 z!ped-up! | %68
!ped! !tenuto!B,6 =C2 [C,,G,,]-!ped-up! | [C,,G,,F,]6 z2 z |!ped! =C,6!ped! [=G,=G]3!ped-up! | %71
"^BEFORE  PLAYING   THIS READ THIS STATEMENT \n                                                                            and  SELECT A PAINTING BY THE ARTISTS MENTIONED ON WALLS                                                             \n                                                                                 \"ANY BODY CAN BE A SOUNDPOETOR A N EXPRESSIVE COLORIST\n                                                                         WE ALL HAVE THAT BUT ORGANIZATIONAL MASTERY MAY BE MORE\n                                                                          COMPLEX NOT  NECESSARILY MORE VALUABLE\n                                                                        ONE CHooSES BETWEEN OR IS SENSITIVE TO BOTH MODES\n                                                                        WHEN CHOOSING AND PRESENTING MATERIAL.\n                                                                  WHAT DO YOU PREFER WHEN U LISTEN TOMUSIC OR LOOK AT A PAINTING?\n                                                                  WHOSE TO SAY WHAT'S PREFERABLE,  or  a  REAL COMPOSITION.\n                                                DIFFICULTY DOESN'T MAKE BETTER ART though it may fascinate\nIS THEIR STRUCTURE of some sort operating in a Haiku ,in our own world at eacl atomic or subatomic , manetism  or other level\nIN A TURNER,COURBET,JACKSON POLLOCK OR SAM FRANCIS PAINTING a noguchi sculpture ? \nsome elements may escape the limits of the human mind" =C,2!ped-up!!ped!{/^A,,-} [A,,A,B,^DE]6 =A,, | %72
 !arpeggio![=G,,C,=C]2 D2 ^C2 [Cd]2 =C- |[M:11/8] C B,2 z2 z3 z2 A,,/G,,/ | %74
[M:9/8]!f!!ped! [=G,,F,]4 !arpeggio![^G,,B,CF]4 =G,,-!ped-up! | [G,,=G,]4 !>!F,,4 !tenuto!C,,- | %76
 C,,6!mp! !tenuto!=C,,,3- | C,,,6 z2 z | z9 |[M:6/8] !>!F,6 | F,6 | F,6 | %82
!ped! [C,E,F,]6 | x3!ped-up!!ped! B,,,/B,,/C,/G,/E,/F,/ [A,,G,]/C/B,/A,/E/^d/!ped-up! | %84
 [^A,,G,]4 z2 | z6 | z6 | z6 | z6 | z6 | z6 |!ped! !arpeggio![E,,=C,=G,]6!ped-up! | [=C,=G,]6 | %93
 [!courtesy!^C=G]6 | [CG]3 [CG]3 |"^freely as in a cadenza" [CG]3 [CG]3 | [B,F]3 [B,F]3 | %97
 [B,F]3 [B,F]3 |!ped! [_B,=F]3 [B,F]3!ped-up! |!ped! [A,E]3 [A,E]3!ped-up! | %100
!ped! [G,^D]3 [G,D]3!ped-up! |!ped! [F,C]3 [F,C]3!ped-up! |!ped! [F,C]3 [F,C]3!ped-up! | %103
!ped! [F,C]3 [F,C]3!ped-up! |!ped! [F,C]3 [F,C]3!ped-up! | F,,,2 B,,,2 E,,2 | A,,2 F,,2 E,2 | %107
!ped! !>!F,6!ped-up! |!ped! !>!F,6!ped-up! |!ped! !>!F,6!ped-up! |!ped! !>!F,6!ped-up! | %111
!ped! !>!F,6!ped-up! | !>!C,6 | !>!C,6 | !>!C,6 |!ped! !>![=C,,=C,]6!ped-up! | %116
 z2 E2 !>![=C,,=C,]2 |[M:9/8]!ped! !>!F,6!ped-up! !>!F,3- | !>!F,3!ped! !>![=C,,=C,]6!ped-up! | %119
[M:9/8]!ped! z2 E2 [=C,,=C,]4 z!ped-up! |[M:6/8]!ped! !>!E,6 | x3!ped-up!!ped! !>!E,3 z3!ped-up! | %122
!ped! !>!E,6!ped-up! |!f!!ped!{/E,} !>!E,3 z3!ped-up! | %124
 z2 D2 !>![_B,,,_B,,]/[A,,,A,,]/[_A,,,=G,,] |!f!!ped! [_A,,,=F,,E,]6!ped-up! | %126
!ped! !>!F,6!ped-up! |!ped! !>!F,6!ped-up! |!ped! !>!F,6!ped-up! |!ped! !>!F,6!ped-up! | %130
!ped! !>!F,6!ped-up! | !>![B,,,B,,]6 | z2 E2 !>![A,,,A,,]2- | [A,,,A,,]=C, !>![=C,,C,]4 | %134
 !arpeggio!!>![A,,,=C,G,]6 |!mf!!<(! !arpeggio!!tenuto![C,,F,,E,]6!<)! | [C,,F,,G,,C,]6- | %137
 [C,,F,,G,,C,]3 z z2 |[M:7/8] z[K:treble]!p! aa aa a!mf!^A, | %139
[M:3/4][K:bass] =F,/E,/E,/E,/ E,/E,/ (3E,2 F,,/=F,,/.=F,,,- | F,,,!>!E,,,!ff! !>!E,,,4 | %141
[M:5/4]!f! .E,,, z z2!<(! z2 z2 z2!<)! |[M:3/4] E,,,/E,,,/E,,, z2 (6:4:6z/ C,/ z/ z/ z/ z/ | %143
 z2!fff!!fff! E,,,/E,,,/E,,,/E,,,/ ^D,,,2- | D,,,6- | D,,,2- D,,,4 | z6 |][M:4/4] z4 z3 z/ G,/- | %148
 G,4 [G,C-]4 | C4 z4 | [F,C][_B,,A,]_E,,_A,,, _D,, z D,,2 |[M:5/4] z4!mf!!mf! [G,,,G,,]6 | %152
[M:4/4]{/[F,,,-=G,,]} [F,,,G,,]8- | [F,,,G,,]4 z2 z2 | [F,,,=G,,]4 z2 z2 | z2 z .D,,/D,,/- D,,4 | %156
 z4 z3/2 D,,/ [=G,,F,]2 | _A,,=G,,G,,F,, =F,,E,, [E,,^D,]2 | z ._A !tenuto!A3 =G [=G,FG]2 | %159
 [F,,,=G,,]4 z2 z2 |[M:5/4] [F,,,=G,,]4 z2 z7/4"^as fAST AS POSSIBLE"!ff!!ff! (=C,/4 z2) | %161
[M:4/4]!f!!f! [=G,,,G,,]4 z4 | z2 z .D,,/[C,,D,,]/- [C,,D,,]4 | z GAF =F,/E,/E, ^D,D,, | z8 | %165
 z z z2 z z z2 | z z z2 z z z2 | z z z2 z z z2 | =G,,4 [=G,,,F,,]4 |[M:5/4] z5 z z2 z B,,, | %170
 B,,,4 _B,,,,6- | B,,,,6 z2 z2 |[M:4/4] _A,,=G,,G,,F,, =F,,E,, [E,,^D,]2 | A,,A,,A,,A,, G,G,G,G, | %174
 !>!=G,!>!G,!>!G,!>!G, G,!>!^D, !tenuto!D,2 | [D,,D,]8 || z8 |!ff!!ff! [C,D,]8 | [C,D,]8 | %179
 [E,,B,,]<[_E,,C,]- [E,,C,]2 !>![E,,C,]4 | z8 | z8 |!ped! z8!ped-up! |!ped! z8!ped-up! | %184
!ped! z8!ped-up! |!ped! (5:4:2G2 A/- A2 (5:4:2G2 A/ A2!ped-up! | %186
!ped! (5:4:2_B2 =B/- B2 (5:4:2_B2 =B/- B2!ped-up! | %187
!ped! (5:4:2G2 =G/ (5:4:2^G2 A/ (5:4:2G2 =G/ (5:4:2=f2 ^f/-!ped-up! | %188
 f3/2 z/!ped! _e2 _B4!ped-up! | z8 |!ped! z8!ped-up! | %191
!ped! (5:4:2=G,2 G/ e>D (5:4:2G,2 G/ (5:4:3e7/4D/4-D/!ped-up! | %192
!ped! (5:4:2=G,2 =F/ F2 (5:4:2G,2 F/ F2!ped-up! | %193
!ped! (5:4:2_B,2 =G/ (5:4:2_E2 d/ (5:4:2_B2 G/ (5:4:2E2 d/!ped-up! |!ped! z8!ped-up! | %195
!ped! z8!ped-up! |!ped! z8!ped-up! | z8 | z8 |!ped! z8!ped-up! | z8 | z8 | z8 | z8 | z8 | z8 | z8 | %207
 z8 | (!>!B,,/_B,,,/).B,,,/.B,,,/ .B,,,/.B,,,/.B,,,/.B,,,/ z4 | .A,,,,/ z/ z !^!G,,,/ z/ z G,,,4- | %210
 G,,,4 z3!ff!!ff! (=G,,,/F,,/) |[M:6/4]!ped! z2 z/ G,,,/G,,/=G,/ z4!ped-up! =F,4 | %212
[M:4/4] z2 z z/ [A,,C,D,]/ [A,,C,D,] [^D,,,C,,D,,_E,,]3 | %213
 [^D,,,C,,D,,]4 (6:4:6=C,,,/F,,,/B,,,/=C,,/F,,/B,,/ (6:4:7=C,/F,/4A,/4_B,/=C/F/_B/ | z8 | %215
 z !>![F,,E,]/!>![=F,,E,]/ z2 z4 | z8 | z8 | z8 | z8 | z8 | z8 | z8 | z8 | z8 | z8 | z8 | z8 | z8 | %229
 z8 | z4 z2 !>!D,,,2 | z2 F,2 [D,F,]2 [C,F,]2- | [C,F,]8 | z8 | z8 |] %235
[M:15/16]!ff! !>![F,,C,G,]7 z/ | [F,,C,G,]4 z2 z z/ | [^A,,F,]4 z2 z [C,,G,,^D,]/ | %238
[M:4/4] [C,,G,,^D,]6 z [^A,,F,]/[A,,F,]/- | [A,,F,]3 z z2 z!mf! [^A,,F,] | [^A,,F,]6 z3/2 [C,C]/ | %241
 z2 z2 [F,E]4- | [F,E]4 [A,,=G,]4 |[M:6/8] [G,,A,]6- | [G,,A,] z z4 |[M:7/8] z7 | %246
 z2 z/ z z/ B,- B,2 | =C/!>!_B,,,/ z2 z B, z [A,,,,B,,,]/ z/ |[M:3/4] [_B,,,,_B,,,] z z4 | %249
 B,,/B,,,/=C/B/ z z z2 | z6 | z6 | =F,3 z z2 | E2 D2 ^D2 |!ff! !>![C,D]2 z2 !>![C,D]2 | %255
 B,,,/_B,,/!>!B,, z2 !>!B,,,, z | !>!_B,, z !>!B,,,, z !>!B,, z | z6 | z6 | G,,2 G,,2 G,,2 | %260
 A,,2 z4 | z6 | z6 | z D,/C/ z4 | z D,/C/ z2 z D,/C/ | z ^D,/D/ z4 | z D,/C/ z D z2 | z6 | %268
 z E,/=F,,/ G,,/=G,/F/ z/ z2 | z6 | z E,/=F,,/ G,,/=G,/F/ z/ z2 | z6 | z6 | z6 | z6 | %275
 z ^D,/E/ D,,/C,/ z C,2 | !>!C,,2 !>!C,,4 | !>!C,,,4 z2 | !>!=C2 z B,,,, C z | z6 | z6 | z6 | %282
 z z [^A,,B,,]!>![=G,,,G,,] z2 | z2!ff! [^A,,B,,]!>![=G,,,G,,] z2 | z2 z2 z =G,,, | %285
!ff! !>![^A,,B,,]6- | [A,,B,,]4- [A,,B,,]!>![^A,,B,,=G,A,] | z2 z2 z !>![^A,,B,,=G,A,] | z2 z2 z2 | %289
 !>!G,4 z2 | [D,_E,]6 | !>!G,4 z2 | [D,_E,]6 | z2 z2 z !>![^A,,B,,A,] | z2 z2 z [^A,,B,,A,] | %295
 z2 z2 z3/2 [A,,_B,,]/ | !>![^A,,B,,]6- | [A,,B,,]4- [A,,B,,]!>![^A,,B,,A,] | z2 z4 | D,2 z3 C, | %300
 =C,, z .B,._B,,, z2 | z6 | !tenuto!A,2 z4 | z6 |[M:4/4] z4 A2 A2 | %305
[M:3/4] [GA]2 [=GA]2 [FGA]>[EF^GA] | [^EF=GA]2 [=F,,E,]4 |[M:5/4] z10 |[M:3/4] A,2 A,2 [G,A,]2 | %309
 [=G,A,E]2"^4" [F,G,A,_B,]2 [^E,F,G,A,]2 | =G,F, =FE _ED | [^B,C]4 z2 | %312
 !>![^E,F,=G,A,]2 !>![^E,,F,,=G,,A,,]2 !>![^E,,,F,,,=G,,,A,,,]2- | [E,,,F,,,G,,,A,,,]6- | %314
 [E,,,F,,,G,,,A,,,]6- | [E,,,F,,,G,,,A,,,]6- | [E,,,F,,,G,,,A,,,]2 z4 |] %317
[K:C#][M:2/4]!f!"^E   T  U  D  E  NO .  7" !>!B,2 z2 |!ff! B,2 z2 | %319
 (6:4:6z/ z/ z/ z/ z/ z/ (6:4:6z/ z/ z/ z/!f! D/=D/ | %320
 (6:4:6C/B,/ z/ z/ z/ z/!ff! (6:4:6D/=D,/C,,/B,,/ z/ z/ | %321
 (6:4:6D/=D,/C,,/B,,/=B,/ z/ (6:4:6z/ z/ z/ z/ z/ [C,,^D,]/ | %322
 (6:4:6=D/ z/ z/ z/ z/ z/ (6:4:6z/ z/ z/ z/ z/ z/ | %323
!f! (6:4:6B,/B,/=B,/A,/ z/ A,/ (6:4:6G,,/=A,/ z/ z/ z/ z/ | %324
 (6:4:6B,/B,/=B,/A,/ z/ A,/ (6:4:6G,,/=A,/ z/ z/ z/ z/ | %325
 (6:4:6C/C/=C/=B,/ z/ B,/ (6:4:6=A,,/A,/ z/ z/ z/ z/ | %326
 (6:4:6C/C/=C/=B,/ z/ B,/ (6:4:6=A,,/A,/ z/ z/ z/ z/ | %327
 (6:4:6z/ z/ z/ z/ z/ z/ (6:4:6z/ z/ z/ z/ z/ z/ | %328
 (6:4:6z/ z/ z/ z/ z/ z/ (6:4:6z/ z/ z/ z/ z/ z/ | %329
 (6:4:6z/ z/ z/ z/ z/ z/ (6:4:6z/ z/ z/ D,/D,,/=D,,,/ | %330
 (6:4:6z/ z/ z/ z/ z/ z/ (6:4:6z/ z/ z/ D,/D,,/=D,,,/ | %331
 (6:4:6z/ z/ z/ z/ z/ z/ (6:4:6z/ z/ z/ D,/D,,/=D,,,/ | %332
 (6:4:6z/ z/ z/ z/ z/ z/!ped! (6:4:6z/ z/ z/ D,/D,,/=D,,,/ | x8!ped-up! z4 | %334
!ped! (6:4:6z/ z/ z/ z/ z/ z/ (6:4:6z/ z/ z/ D,/[D,,E,]/[=D,,,=E,,]/!ped-up! | %335
!ped! [E,,D,]2 [=E,,=D,]2!ped-up! |!ped! [D,,C,]2 !arpeggio![=D,,C,=C]2!ped-up! | %337
!ped! C,,2 z/ F,,3/2!ped-up! |!ped! =F,,2 =E,,2!ped-up! |[M:3/4]!ped! [=E,=E]6!ped-up! | %340
[M:2/4] z4 |[M:4/4]!ped! [E,,F,,C,G,=A,]8-!ped-up! | [E,,F,,C,G,A,]8 |] %343
[M:15/16]"^ETUDE NO. 8"!ped! [F,,C,G,]7 z/ x/!ped-up! x2 |!ped! [F,,C,G,]7 z/!ped-up! x5/2 | %345
 [A,,F,]7 z/ |[M:4/4]!ped! !arpeggio![_D,,_A,,_E,]7 z!ped-up! |!ped! [=F,=E]4 [F,E]4!ped-up! | %348
!ped! [=F,=E]4 [F,E]4!ped-up! |!ped! [=A,,=G,]4 [_B,,^G,]4!ped-up! x4 | %350
!f!!ped! z3/2 =E/- E2- E4!ped-up! x4 |!ped! z4 z3 [=G,,,=G,,]!ped-up! | %352
!ff!!ped! [G,,,G,,]8!ped-up! x4 |!ped! [G,,,G,,]8 x4 | %354
!ped! [F,,C,G,]7 z/!ped-up!!ped! [F,,C,G,]/- x4 | [F,,C,G,]6- [F,,C,G,]/ z/!ped-up! z x4 | %356
!ped! [F,,C,G,]7 z/!ped-up!!ped! [F,,C,G,]/-!ped-up! x4 | [F,,C,G,]6- [F,,C,G,]/ z/!ped-up! z x4 | %358
 z8 |][K:C] [_B,,E,^G,]8 |!ped! [_B,,E,^G,]8!ped-up! |!ped! !arpeggio![^F,,D,A,]8!ped-up! | %362
 z D- D2 z d- d2 x4 | z D- D2 z d- d2 x4 | [_B,,E,^G,]8 | [_B,,E,^G,]8 | z8 | z8 | z8 | %369
!ped! [^F,,^C,D,E,]8!ped-up! | z8 | z8 | z8 | z8 | z8 | z8 | z8 |] z4 z3 [^G,,E,]- | [G,,E,]8 | %379
 !arpeggio![^F,,^D,E,]8 |{/[_B,,-E,]} [B,,E,]8 |{/[D,,-A,,E,]} [D,,A,,E,]8 x4 | %382
{/[^F,,^C,^G,]-} [F,,C,G,]8 x4 | [D,,A,,E,]8 x4 |{/[^F,,-E,^G,]} [F,,E,G,]8 | %385
!ff! !arpeggio![_B,,F,G,_A,D^c]8 | !arpeggio![F,,D,_E,^C^GA]4 z4 | !arpeggio![F,,D,_E,^C^GA]4 z4 | %388
 !arpeggio![F,,D,_E,^C^GA]4 z4 | z8 ||[K:G] z8 | z2 !>![G,,G,]6- x4 | [A,,,,_A,,,G,,_A,,G,]8 x4 | %393
 z8 |] %394
V:3
 z G- G4 | z G- G4 | z G- G4 | z G- G4 | z G- G4 | z !>!^D!f! !>!D4 | z .^d !>!^D4 | z G- G4 | %8
 z G- G4 | z F- F4 | z ^d- d4 | z c- c4 | z =c- c4 | z ^A- A4 | z A- A4 | z E- E4 | z E,- E,4 | %17
 z =C- C4 | z =C- C4 | z =C- C4 | z =C- C4 | z B,- B,4 | z ^A,- A,4 | z G- G4 | z G- G4 | z G- G4 | %26
 z G- G4 | z G,- G,4 | z G- G4 | z G- G4 | z !>!G- G4 |[M:13/16] z"^1" G- G4 x/ | z G- G4 x/ | %33
[M:15/16] x15/2 |[M:13/16] x13/2 |[M:9/8] x9 | x9 | x9 |[M:13/16] x13/2 |[M:3/8] x3 |[M:6/8] x6 | %41
 x6 |[M:9/8] x9 |[M:5/4] x10 | x10 | x10 | x10 |[M:5/4] x10 | x10 | x10 |[M:9/8] x9 | %51
 !tenuto!=C8 z | !tenuto!=C8 z | !tenuto!=C8 z | !arpeggio![G,,^A,,]4 z4 z |[M:5/4] x10 | %56
[M:9/8] x9 | x9 | x9 | x9 | x9 | x9 | x9 | x9 | x9 | x9 | x9 | x9 | x9 | x9 | z ^D D4 x3 | %71
 z [=F,^D] x7 | x9 |[M:11/8] x11 |[M:9/8] x9 | x9 | x9 | x9 | x9 |[M:6/8] z !>!G- G4 | z !>!G- G4 | %81
 z A- A4 | B, B- B4 | x6 | x6 | x6 | x6 | x6 | x6 | x6 | x6 | x6 | x6 | z4 z !>!F, | x6 | x6 | x6 | %97
 x6 | x6 | x6 | x6 | x6 | x6 | x6 | x6 | x6 | x6 | z G- G4 | z G- G4 | z G- G4 | z G- G4 | %111
 z G- G4 | z ^D- D4 | z ^D- D4 | z ^D- D4 | z !>!^D !>!D4 | z .^d !>!^D4 |[M:9/8] z G- G4 z G-G- | %118
 G3 z !>!^D !>!D4 |[M:9/8] z .^d !>!^D3 x4 |[M:6/8] z _G- G4 | _G3 z G- z | z G- G4 | %123
 z/ G/=G/ z/ z z !>!_D z | z ._d x4 | x6 | z G- G4 | z G- G4 | z G- G4 | z G- G4 | z G- G4 | %131
 z !>!D !>!D4 | z .!courtesy!^c !>!^D3 x | x6 | x6 | x6 | x6 | x6 |[M:7/8] x[K:treble] x6 | %139
[M:3/4][K:bass] x6 | x6 |[M:5/4] x10 |[M:3/4] x6 | x6 | x6 | x6 | x6 |][M:4/4] x8 | x8 | x8 | x8 | %151
[M:5/4] x10 |[M:4/4] z2 [^^F,,^G,,E,]2 [F,,,=G,,]4 | x8 | x8 | x8 | x8 | x8 | x8 | x8 | %160
[M:5/4] x10 |[M:4/4] x8 | x8 | x8 |{/_E,,D,} !arpeggio!E,4 z4 | E,4 C,4 | =C,4 A,,4 | %167
 !arpeggio!G,,4 !arpeggio!F,,4 | E,,4 ^D,,4 |[M:5/4] C,,C,,C,,!>!=C,,!>!C,, z z2 z2 | x10 | x10 | %172
[M:4/4] x8 | x8 | x8 | x8 || x8 | x8 | x8 | D,8 | x8 | x8 | x8 | x8 | x8 | x8 | x8 | x8 | x8 | x8 | %190
 x8 | x8 | x8 | x8 | x8 | x8 | x8 | x8 | x8 | x8 | x8 | x8 | x8 | x8 | x8 | x8 | x8 | x8 | x8 | %209
 x8 | x8 |[M:6/4] x12 |[M:4/4] x8 | x8 | x8 | x8 | x8 | x8 | x8 | x8 | x8 | x8 | x8 | x8 | x8 | %225
 x8 | x8 | x8 | x8 | x8 | x8 | C,,,8 | C,,,8- | C,,,8 | x8 |][M:15/16] x15/2 | x15/2 | x15/2 | %238
[M:4/4] x8 | x8 | x8 | x8 | x8 |[M:6/8] x6 | x6 |[M:7/8] x7 | x7 | x7 |[M:3/4] x6 | x6 | x6 | x6 | %252
 x6 | x6 | x6 | x6 | x6 | x6 | x6 | x6 | x6 | x6 | x6 | x6 | x6 | x6 | x6 | x6 | x6 | x6 | x6 | %271
 x6 | x6 | x6 | x6 | x6 | x6 | x6 | x6 | x6 | x6 | x6 | x6 | x6 | x6 | x6 | x6 | x6 | x6 | x6 | %290
 x6 | x6 | x6 | x6 | x6 | x6 | x6 | x6 | x6 | x6 | x6 | x6 | x6 | x6 |[M:4/4] x8 |[M:3/4] x6 | x6 | %307
[M:5/4] x10 |[M:3/4] x6 | x6 | x6 | x6 | x6 | x6 | x6 | x6 | x6 |][K:C#][M:2/4] x4 | x4 | x4 | x4 | %321
 x4 | x4 | x4 | x4 | x4 | x4 | x4 | x4 | x4 | x4 | x4 | x4 | x4 | x4 | x4 | x4 | x4 | x4 | %339
[M:3/4] x6 |[M:2/4] x4 |[M:4/4] x8 | x8 |][M:15/16] x10 | x10 | x15/2 |[M:4/4] x8 | x8 | x8 | x12 | %350
 x4 [D,,F,,=D,]8 | x8 | x12 | x12 | x12 | x11 z | x12 | x11 z | x8 |][K:C] x8 | x8 | x8 | x12 | %363
 x12 | x8 | x8 | x8 | x8 | x8 | x8 | x8 | x8 | x8 | x8 | x8 | x8 | x8 |] x8 | x8 | x8 | x8 | x12 | %382
 x12 | x12 | x8 | x8 | x8 | x8 | x8 | x8 ||[K:G] x8 | x4 z2 z2 !>![^G,,,^G,,]4 | x12 | x8 |] %394
V:4
 x6 | x6 | x6 | x6 | x6 | x6 | x6 | x6 | x6 | x6 | x6 | x6 | x6 | x6 | x6 | x6 |[K:bass] x6 | x6 | %18
 x6 | x6 | x6 | x6 | x6 |[K:treble] x6 | x6 | x6 | x6 |[K:bass] x6 | x6 | x6 | x6 | %31
[M:13/16][K:treble] x13/2 | x13/2 |[M:15/16] x15/2 |[M:13/16] x13/2 |[M:9/8] x9 | x9 | x9 | %38
[M:13/16] x13/2 |[M:3/8] x3 |[M:6/8] x6 | x6 |[M:9/8] x9 |[M:5/4] x10 | x10 | f[_eg] d8 | x10 | %47
[M:5/4] x10 | x10 | x10 |[M:9/8] z ^d z4 x3 | z ^d z4 x3 | z ^d z4 x3 | z ^d z4 x3 | z ^d z4 x3 | %55
[M:5/4] x2 d4- d4 |[M:9/8] z ^d !arpeggio!=C4 x3 | z ^d z4 x3 | z ^d z4 x3 | z ^d z z z2 x3 | %60
 z ^d z z z2 x3 | z ^d z z z2 x3 | z ^d z z z2 x3 | z ^d z z z2 x3 | z ^d z z z2 x3 | %65
 z ^d z z z2 x3 | z ^d z z z2 x3 | z ^d z z z2 x3 | z ^d z z z2 x3 | x9 | x9 | x6[K:bass] x3 | %72
[K:treble] x9 |[M:11/8] c'4 b4 [Ac^df-g]3 |[M:9/8] f z8 | x9 | x9 | x9 | x9 |[M:6/8] x6 | x6 | x6 | %82
 x6 | x6 | x6 | x6 | x6 | x6 | x6 | x6 | x6 | x6 | x6 | x6 | x6 | x6 | x6 | x6 | x6 | x6 | x6 | %101
 x6 | x6 | x6 | x6 | x6 | x6 | x6 | x6 | x6 | x6 | x6 | x6 | x6 | x6 | x6 | x6 |[M:9/8] x9 | x9 | %119
[M:9/8] x9 |[M:6/8] x6 | x6 | x6 | x6 | x6 | x6 | x6 | x6 | x6 | x6 | x6 | x6 | x6 | x6 | x6 | x6 | %136
 x6 | x6 |[M:7/8] x7 |[M:3/4] x6 | x6 |[M:5/4] x10 |[M:3/4] x6 | x6 | x6 | x6 | x6 |][M:4/4] x8 | %148
 x8 | x8 | x8 |[M:5/4] x10 |[M:4/4] x8 | !arpeggio!=e4 z/ (_d/_e/)d'/ d'2 | %154
 !arpeggio!=e4 z/ (_d/_e/)d'/ d'2 | x8 | z/ (_d/_e/)d'/ d'2 x4 | x8 | x8 | %159
 !arpeggio!=e4 z/ (_d/_e/)d'/ d'2 |[M:5/4] !arpeggio!=e4 z/ (_d/_e/)d'/ d'2 x2 |[M:4/4] x8 | x8 | %163
 x8 | z/ b/c'/=c''/ c''2 z/ a/_b _a'a' | x8 | x8 | x8 | x8 |[M:5/4] x10 | x10 | x10 |[M:4/4] x8 | %173
 x8 | x8 | z/ g3/2 g4 c=f || x8 | z/ e/e ee eee x | z/ e/e ee eee x | z6 z !>!g'' | x8 | x8 | x8 | %183
 x8 | x8 | x8 | x8 | x8 | f2 z2 _B4 | x8 | x8 | x8 | =G,2 =F2 z4 | x8 | x8 | x8 | x8 | x8 | x8 | %199
 z/ [Ac]/[A=ce]/_D,/!ff! _B,/[A^c]/[=ce]/D,/ F,,/[B,_D]/[Ac]/[A_Bd]/ g/b/=g'/_b'/ | %200
 g/b/=g'/_b'/ z2 z4 | %201
 z/ [Ac]/[A=ce]/_D,/ _B,/[A^c]/[=ce]/D,/ F,,/[B,_D]/[Ac]/[A_Bd]/ g/b/=g'/_b'/ | %202
 g/b/=g'/_b'/ z2 z4 | a/=c'/g'/b'/ z2 z4 | ^a/c'/a'/=c''/ z2 z4 | b/d'/^a'/c''/ z2 z4 | %206
 B/d/^a/c'/ z2 z4 | x8 | x8 | x8 | x8 |[M:6/4] z4 z !>!B- B2 x4 |[M:4/4] x8 | x8 | x8 | x8 | %216
 =g z a z z4 | x8 | x8 | x8 | x8 | x8 | x8 | x8 | x8 | x8 | x8 | x8 | x8 | x8 | x8 | x8 | x8 | x8 | %234
 x8 |][M:15/16] x15/2 | x15/2 | x15/2 |[M:4/4] x8 | x8 | x8 | x8 | x8 |[M:6/8] x6 | x6 | %245
[M:7/8] x7 | x7 | x7 |[M:3/4] x6 | x3[K:bass] x3 |[K:treble] x6 | x6 | x6 | x6 | x6 | x6 | x6 | %257
 x6 | x6 | x6 | x6 | x6 | x6 | x6 | x6 | x6 | x6 | x6 | x6 | x6 | x6 | x6 | x6 | x6 | x6 | x6 | %276
 x6 | x6 | x6 | x6 | x6 | x6 | x6 | x6 | x6 | x6 | x6 | x6 | x6 | x6 | x6 | x6 | x6 | x6 | x6 | %295
 x6 | x6 | x6 | x6 | x6 | x6 | x6 | x6 | x6 |[M:4/4] x8 |[M:3/4] x6 | x6 |[M:5/4] x10 |[M:3/4] x6 | %309
 x6 | x6 | x6 | x6 | x6 | x6 | x6 | x6 |][K:C#][M:2/4] x4 | x4 | x4 | x4 | x4 | x4 | x4 | x4 | x4 | %326
 x4 | x4 | x4 | x4 | x4 | x4 | x4 | x4 | x4 | x4 | x4 | x4 | x4 |[M:3/4] x6 |[M:2/4] x4 | %341
[M:4/4] x8 | x8 |][M:15/16] x4 z z/ [=A=d]/[=D=E]/[Ad]/ z/ [Ad]/[DE]/[Ad]/ z/ [Ad]/ | %344
 x4 z z/ [=A=d]/[=D=E]/[Ad]/ z/ [Ad]/[DE]/[Ad]/ z/ [Ad]/ | x15/2 |[M:4/4] x8 | x8 | x8 | %349
 x4 z [cg=d']- [cgd']2 z [cgd']- [cgd']2 | x12 | x8 | x4 z/ =b/b [b=c']4 z2 | %353
 x4 z/ g/- g2!ff! [c'd'=d'']3 z2 | %354
 x4 z z/ [=A=d]/ [=D=E]/[Ad]/ z/ [Ad]/[DE]/[Ad]/ z/ [Ad]/ x3/2 z/ | %355
 x4 z/ z/ [=A=d]/[=D=E]/ [Ad]/ z/ [Ad]/[DE]/[Ad]/ z/ [Ad]/ x3/2 z | %356
 x4 z z/ [=A=d]/ [=D=E]/[Ad]/ z/ [Ad]/[DE]/[Ad]/ z/ [Ad]/ x3/2 z/ | %357
 x4 z/ z/ [=A=d]/[=D=E]/ [Ad]/ z/ [Ad]/[DE]/[Ad]/ z/ [Ad]/ x3/2 z | x8 |][K:C] x8 | x8 | x8 | %362
 x4 ^f/=f/^f/=f/ ^f/=f/^f/=f/^f/=f/^f/=f/^f/=f/^f/=f/ | %363
 x4 ^f/=f/^f/=f/ ^f/=f/^f/=f/^f/=f/^f/=f/^f/=f/^f/=f/ | x8 | x8 | x8 | x8 | x8 | x8 | x8 | x8 | %372
 x8 | x8 | x8 | x8 | x8 |] x8 | x8 | x8 | x8 | x4 A^cAcAcAc | x4 ^cdcdcdcd | x4 ^CDCDCDCD | x8 | %385
 x8 | x8 | x8 | x8 | x8 ||[K:G] x8 | x4 !>![ee']8- | x4 [ee']8 | x8 |] %394
V:5
 x6 | x6 | x6 | x6 | x6 | x6 | x6 | x6 | x6 | x6 | x6 | x6 | x6 | x6 | x6 | x6 | x6 | x6 | x6 | %19
 x6 | x6 | x6 | x6 | x6 | x6 | x6 | x6 | x6 | x6 | x6 | x6 |[M:13/16] x13/2 | x13/2 | %33
[M:15/16] x15/2 |[M:13/16] x13/2 |[M:9/8] x9 | x9 | x9 |[M:13/16] x13/2 |[M:3/8] x3 |[M:6/8] x6 | %41
 x6 |[M:9/8] x9 |[M:5/4] x10 | x10 | x10 | x10 |[M:5/4] x10 | x10 | x10 |[M:9/8] x9 | x9 | x9 | %53
 x9 | x9 |[M:5/4] x10 |[M:9/8] x9 | x9 | x9 | x9 | x9 | x9 | x9 | x9 | x9 | x9 | x9 | x9 | x9 | %69
 x9 | x9 | x9 | x9 |[M:11/8] x11 |[M:9/8] x9 | x9 | x9 | x9 | x9 |[M:6/8] x6 | x6 | x6 | x6 | x6 | %84
 x6 | x6 | x6 | x6 | x6 | x6 | x6 | x6 | x6 | x6 | x6 | x6 | x6 | x6 | x6 | x6 | x6 | x6 | x6 | %103
 x6 | x6 | x6 | x6 | x6 | x6 | x6 | x6 | x6 | x6 | x6 | x6 | x6 | x6 |[M:9/8] x9 | x9 |[M:9/8] x9 | %120
[M:6/8] x6 | x6 | x6 | x6 | x6 | x6 | x6 | x6 | x6 | x6 | x6 | x6 | x6 | x6 | x6 | x6 | x6 | x6 | %138
[M:7/8] x[K:treble] x6 |[M:3/4][K:bass] x6 | x6 |[M:5/4] x10 |[M:3/4] x6 | x6 | x6 | x6 | x6 |] %147
[M:4/4] x8 | x8 | x8 | x8 |[M:5/4] x10 |[M:4/4] x8 | x8 | x8 | x8 | x8 | x8 | x8 | x8 | %160
[M:5/4] x10 |[M:4/4] x8 | x8 | x8 | x8 | x8 | x8 | x8 | x8 |[M:5/4] x10 | x10 | x10 |[M:4/4] x8 | %173
 x8 | x8 | x8 || x8 | x8 | x8 | x8 | x8 | x8 | x8 | x8 | x8 | x8 | x8 | x8 | x8 | x8 | x8 | x8 | %192
 x8 | x8 | x8 | x8 | x8 | x8 | x8 | x8 | x8 | x8 | x8 | x8 | x8 | x8 | x8 | x8 | x8 | x8 | x8 | %211
[M:6/4] x12 |[M:4/4] x8 | x8 | x8 | x8 | x8 | x8 | x8 | x8 | x8 | x8 | x8 | x8 | x8 | x8 | x8 | %227
 x8 | x8 | x8 | x8 | x8 | x8 | x8 | x8 |][M:15/16] x15/2 | x15/2 | x15/2 |[M:4/4] x8 | x8 | x8 | %241
 x8 | x8 |[M:6/8] x6 | x6 |[M:7/8] x7 | x7 | x7 |[M:3/4] x6 | x6 | x6 | x6 | x6 | x6 | x6 | x6 | %256
 x6 | x6 | x6 | x6 | x6 | x6 | x6 | x6 | x6 | x6 | x6 | x6 | x6 | x6 | x6 | x6 | x6 | x6 | x6 | %275
 x6 | x6 | x6 | x6 | x6 | x6 | x6 | x6 | x6 | x6 | x6 | x6 | x6 | x6 | x6 | x6 | x6 | x6 | x6 | %294
 x6 | x6 | x6 | x6 | x6 | x6 | x6 | x6 | x6 | x6 |[M:4/4] x8 |[M:3/4] x6 | x6 |[M:5/4] x10 | %308
[M:3/4] x6 | x6 | x6 | x6 | x6 | x6 | x6 | x6 | x6 |][K:C#][M:2/4] x4 | x4 | x4 | x4 | x4 | x4 | %323
 x4 | x4 | x4 | x4 | x4 | x4 | x4 | x4 | x4 | x4 | x4 | x4 | x4 | x4 | x4 | x4 |[M:3/4] x6 | %340
[M:2/4] x4 |[M:4/4] x8 | x8 |][M:15/16] x10 | x10 | x15/2 |[M:4/4] x8 | x8 | x8 | x12 | x12 | x8 | %352
 x12 | x12 | x12 | x12 | x12 | x12 | x8 |][K:C] x8 | x8 | x8 | x12 | x12 | x8 | x8 | x8 | x8 | x8 | %369
 x8 | x8 | x8 | x8 | x8 | x8 | x8 | x8 |] x8 | x8 | x8 | x8 | x12 | x12 | x12 | x8 | x8 | x8 | x8 | %388
 x8 | x8 ||[K:G] x8 | x4 z4 z2 !>![A,,,,A,,,]2 | x12 | x8 |] %394

